packages/icon/src/svg/phone-down.icon.svg

<svg width="24" height="24" viewBox="0 0 24 24" fill="none" xmlns="http://www.w3.org/2000/svg">
<path fill-rule="evenodd" clip-rule="evenodd" d="M9.5 13.002C9.77614 13.002 10 13.2259 10 13.502V20.5C10 20.7761 9.77614 21 9.5 21H2.5C2.22386 21 2 20.7761 2 20.5V14C2 7.383 7.383 2 14 2H20.5C20.7761 2 21 2.22386 21 2.5V9.5C21 9.77614 20.7761 10 20.5 10H13.502C13.2259 10 13.002 9.77614 13.002 9.5V8.092C10.418 8.529 8.482 10.459 8.078 13.002H9.5ZM4 14V19.002L8 19V15H6V14C6 9.512 9.433 6.072 13.984 6C14.252 5.996 15 6 15 6V8H19V4H14C8.485 4 4 8.486 4 14ZM21.4999 13.9999C21.776 13.9999 21.9999 14.2238 21.9999 14.4999V21.4999C21.9999 21.776 21.776 21.9999 21.4999 21.9999H14.4999C14.2238 21.9999 13.9999 21.776 13.9999 21.4999V20.4999C13.9999 20.2238 14.2238 19.9999 14.4999 19.9999H18.5859L12.6464 14.0604C12.4512 13.8652 12.4512 13.5486 12.6464 13.3533L13.3533 12.6464C13.5486 12.4512 13.8652 12.4512 14.0604 12.6464L19.9999 18.5859V14.4999C19.9999 14.2238 20.2238 13.9999 20.4999 13.9999H21.4999Z" fill="white"/>
</svg>

<svg aria-label="phone down icon" viewBox="0 0 24 24"><path fill-rule="evenodd" clip-rule="evenodd" d="M9.5 13.002a.5.5 0 01.5.5V20.5a.5.5 0 01-.5.5h-7a.5.5 0 01-.5-.5V14C2 7.383 7.383 2 14 2h6.5a.5.5 0 01.5.5v7a.5.5 0 01-.5.5h-6.998a.5.5 0 01-.5-.5V8.092c-2.584.437-4.52 2.367-4.924 4.91H9.5zM4 14v5.002L8 19v-4H6v-1c0-4.488 3.433-7.928 7.984-8C14.252 5.996 15 6 15 6v2h4V4h-5C8.485 4 4 8.486 4 14zm17.5 0a.5.5 0 01.5.5v7a.5.5 0 01-.5.5h-7a.5.5 0 01-.5-.5v-1a.5.5 0 01.5-.5h4.086l-5.94-5.94a.5.5 0 010-.707l.707-.707a.5.5 0 01.707 0l5.94 5.94V14.5a.5.5 0 01.5-.5h1z"/></svg>
